svgs/light/memo-circle-check.svg

<svg xmlns="http://www.w3.org/2000/svg" viewBox="0 0 576 512"><!--! Font Awesome Pro 6.4.2 by @fontawesome - https://fontawesome.com License - https://fontawesome.com/license (Commercial License) Copyright 2023 Fonticons, Inc. --><path d="M320 32H64C46.3 32 32 46.3 32 64V448c0 17.7 14.3 32 32 32H296.2c9.8 11.8 21 22.3 33.5 31.3c-3.2 .5-6.4 .7-9.7 .7H64c-35.3 0-64-28.7-64-64V64C0 28.7 28.7 0 64 0H320c35.3 0 64 28.7 64 64V198.6c-11.2 3.2-21.9 7.4-32 12.6V64c0-17.7-14.3-32-32-32zM64 144c0-8.8 7.2-16 16-16H304c8.8 0 16 7.2 16 16s-7.2 16-16 16H80c-8.8 0-16-7.2-16-16zm16 80H272c8.8 0 16 7.2 16 16s-7.2 16-16 16H80c-8.8 0-16-7.2-16-16s7.2-16 16-16zm0 96H208c8.8 0 16 7.2 16 16s-7.2 16-16 16H80c-8.8 0-16-7.2-16-16s7.2-16 16-16zM432 480a112 112 0 1 0 0-224 112 112 0 1 0 0 224zm0-256a144 144 0 1 1 0 288 144 144 0 1 1 0-288zm44.7 100.7c6.2-6.2 16.4-6.2 22.6 0s6.2 16.4 0 22.6l-72 72c-6.2 6.2-16.4 6.2-22.6 0l-40-40c-6.2-6.2-6.2-16.4 0-22.6s16.4-6.2 22.6 0L416 385.4l60.7-60.7z"/></svg>

<svg xmlns="http://www.w3.org/2000/svg" viewBox="0 0 576 512"><!--! Font Awesome Pro 6.1.1 by @fontawesome - https://fontawesome.com License - https://fontawesome.com/license (Commercial License) Copyright 2022 Fonticons, Inc. --><path d="M320 32H64C46.33 32 32 46.33 32 64V448C32 465.7 46.33 480 64 480H296.2C305.1 491.8 317.3 502.3 329.7 511.3C326.6 511.7 323.3 512 320 512H64C28.65 512 0 483.3 0 448V64C0 28.65 28.65 0 64 0H320C355.3 0 384 28.65 384 64V198.6C372.8 201.8 362.1 206 352 211.2V64C352 46.33 337.7 32 320 32V32zM64 144C64 135.2 71.16 128 80 128H304C312.8 128 320 135.2 320 144C320 152.8 312.8 160 304 160H80C71.16 160 64 152.8 64 144zM272 224C280.8 224 288 231.2 288 240C288 248.8 280.8 256 272 256H80C71.16 256 64 248.8 64 240C64 231.2 71.16 224 80 224H272zM208 320C216.8 320 224 327.2 224 336C224 344.8 216.8 352 208 352H80C71.16 352 64 344.8 64 336C64 327.2 71.16 320 80 320H208zM476.7 324.7C482.9 318.4 493.1 318.4 499.3 324.7C505.6 330.9 505.6 341.1 499.3 347.3L427.3 419.3C421.1 425.6 410.9 425.6 404.7 419.3L364.7 379.3C358.4 373.1 358.4 362.9 364.7 356.7C370.9 350.4 381.1 350.4 387.3 356.7L416 385.4L476.7 324.7zM288 368C288 288.5 352.5 224 432 224C511.5 224 576 288.5 576 368C576 447.5 511.5 512 432 512C352.5 512 288 447.5 288 368zM432 480C493.9 480 544 429.9 544 368C544 306.1 493.9 256 432 256C370.1 256 320 306.1 320 368C320 429.9 370.1 480 432 480z"/></svg>
